symbols/web/local_library/materialsymbolsoutlined/local_library_wght700gradN25fill1_48px.svg

<svg xmlns="http://www.w3.org/2000/svg" height="48" width="48"><path d="M24 46.4q-4.05-3.55-8.925-5.5Q10.2 38.95 5.2 38.95v-21.8q5 0 9.825 2.05Q19.85 21.25 24 24.7q4.15-3.45 8.975-5.5 4.825-2.05 9.875-2.05v21.8q-5 0-9.875 1.95T24 46.4Zm.15-29q-3.4 0-5.75-2.35t-2.35-5.8q0-3.45 2.325-5.8Q20.7 1.1 24.15 1.1q3.4 0 5.775 2.35Q32.3 5.8 32.3 9.25q0 3.45-2.35 5.8-2.35 2.35-5.8 2.35Z"/></svg>

<svg xmlns="http://www.w3.org/2000/svg" height="48" width="48"><path d="M24 46.4Q19.95 42.85 15.075 40.9Q10.2 38.95 5.2 38.95V17.15Q10.2 17.15 15.025 19.2Q19.85 21.25 24 24.7Q28.15 21.25 32.975 19.2Q37.8 17.15 42.85 17.15V38.95Q37.85 38.95 32.975 40.9Q28.1 42.85 24 46.4ZM24.15 17.4Q20.75 17.4 18.4 15.05Q16.05 12.7 16.05 9.25Q16.05 5.8 18.375 3.45Q20.7 1.1 24.15 1.1Q27.55 1.1 29.925 3.45Q32.3 5.8 32.3 9.25Q32.3 12.7 29.95 15.05Q27.6 17.4 24.15 17.4Z"/></svg>
